X: 18061
T: Humours Of Ballinahulla, The
R: jig
M: 6/8
K: Gmajor
|BAB G2 D|GBd edB|AGA DFA|DFA cBA|
BAB G2 D|GBd edB|A2 A DFA|AGF G3:|
fef def|g2 g efg|f2 A AFA|BAF Ade|
fef def|g2 g efg|fed ^cAG|Ad^c d3:|

